2017/02/20/桥接模式/bridge.svg

<svg xmlns="http://www.w3.org/2000/svg" viewBox="96 47 774 472" width="774" height="472"><defs><marker id="a" markerUnits="userSpaceOnUse" orient="auto" markerWidth="16.236" markerHeight="10.551" viewBox="-1 -1.376 16.236 10.551" refX="-1" refY="3.899"><path d="M12 3.899l-12 3.9V0z" stroke="#323232" stroke-width="2" fill="#323232"/></marker><marker id="b" markerUnits="userSpaceOnUse" orient="auto" markerWidth="16.236" markerHeight="10.551" viewBox="-1 -1.376 16.236 10.551" refX="-1" refY="3.899"><path d="M12 3.899l-12 3.9V0z" stroke="#323232" stroke-width="2" fill="#fff"/></marker><marker id="c" markerUnits="userSpaceOnUse" orient="auto" markerWidth="16.236" markerHeight="10.551" viewBox="-1 -1.376 16.236 10.551" refX="-1" refY="3.899"><path d="M12 3.899l-12 3.9V0z" stroke="#323232" stroke-width="2" fill="#fff"/></marker><marker id="d" markerUnits="userSpaceOnUse" orient="auto" markerWidth="16.236" markerHeight="10.551" viewBox="-1 -1.376 16.236 10.551" refX="-1" refY="3.899"><path d="M12 3.899l-12 3.9V0z" stroke="#323232" stroke-width="2" fill="#fff"/></marker><marker id="e" markerUnits="userSpaceOnUse" orient="auto" markerWidth="16.236" markerHeight="10.551" viewBox="-1 -1.376 16.236 10.551" refX="-1" refY="3.899"><path d="M12 3.899l-12 3.9V0z" stroke="#323232" stroke-width="2" fill="#fff"/></marker><marker id="f" markerUnits="userSpaceOnUse" orient="auto" markerWidth="16.236" markerHeight="10.551" viewBox="-1 -1.376 16.236 10.551" refX="-1" refY="3.899"><path d="M12 3.899l-12 3.9V0z" stroke="#323232" stroke-width="2" fill="#fff"/></marker></defs><path d="M96 47h774v472H96V47z" fill="#fff"/><path d="M391 71q0-4 4-4h139q4 0 4 4v107q0 4-4 4H395q-4 0-4-4z" stroke="#323232" stroke-width="2" fill="#fff"/><path d="M391 97h147m-147 42.5h147" stroke="#323232" stroke-width="2" fill="none"/><path d="M391 67h147v115H391z" fill="none"/><text font-weight="bold" text-decoration="blink" font-family="微软雅黑" text-anchor="middle" font-size="13" x="63.5" y="13.325" transform="translate(401 73.875)">手机软件</text><path d="M591 234q0-4 4-4h139q4 0 4 4v107q0 4-4 4H595q-4 0-4-4z" stroke="#323232" stroke-width="2" fill="#fff"/><path d="M591 260h147m-147 42.5h147" stroke="#323232" stroke-width="2" fill="none"/><path d="M591 230h147v115H591z" fill="none"/><text font-weight="bold" text-decoration="blink" font-family="微软雅黑" text-anchor="middle" font-size="13" x="63.5" y="13.325" transform="translate(601 236.875)">游戏</text><path d="M211 234q0-4 4-4h139q4 0 4 4v107q0 4-4 4H215q-4 0-4-4z" stroke="#323232" stroke-width="2" fill="#fff"/><path d="M211 260h147m-147 42.5h147" stroke="#323232" stroke-width="2" fill="none"/><path d="M211 230h147v115H211z" fill="none"/><text font-weight="bold" text-decoration="blink" font-family="微软雅黑" text-anchor="middle" font-size="13" x="63.5" y="13.325" transform="translate(221 236.875)">通讯录</text><g><path d="M306 388q0-4 4-4h139q4 0 4 4v107q0 4-4 4H310q-4 0-4-4z" stroke="#323232" stroke-width="2" fill="#fff"/><path d="M306 414h147m-147 42.5h147" stroke="#323232" stroke-width="2" fill="none"/><path d="M306 384h147v115H306z" fill="none"/><text font-weight="bold" text-decoration="blink" font-family="微软雅黑" text-anchor="middle" font-size="13" x="63.5" y="13.325" transform="translate(316 390.875)">手机品牌N通讯录</text></g><g><path d="M116 388q0-4 4-4h139q4 0 4 4v107q0 4-4 4H120q-4 0-4-4z" stroke="#323232" stroke-width="2" fill="#fff"/><path d="M116 414h147m-147 42.5h147" stroke="#323232" stroke-width="2" fill="none"/><path d="M116 384h147v115H116z" fill="none"/><text font-weight="bold" text-decoration="blink" font-family="微软雅黑" text-anchor="middle" font-size="13" x="63.5" y="13.325" transform="translate(126 390.875)">手机品牌M通讯录</text></g><g><path d="M703 388q0-4 4-4h139q4 0 4 4v107q0 4-4 4H707q-4 0-4-4z" stroke="#323232" stroke-width="2" fill="#fff"/><path d="M703 414h147m-147 42.5h147" stroke="#323232" stroke-width="2" fill="none"/><path d="M703 384h147v115H703z" fill="none"/><text font-weight="bold" text-decoration="blink" font-family="微软雅黑" text-anchor="middle" font-size="13" x="63.5" y="13.325" transform="translate(713 390.875)">手机品牌N游戏</text></g><g><path d="M502 388q0-4 4-4h139q4 0 4 4v107q0 4-4 4H506q-4 0-4-4z" stroke="#323232" stroke-width="2" fill="#fff"/><path d="M502 414h147m-147 42.5h147" stroke="#323232" stroke-width="2" fill="none"/><path d="M502 384h147v115H502z" fill="none"/><text font-weight="bold" text-decoration="blink" font-family="微软雅黑" text-anchor="middle" font-size="13" x="63.5" y="13.325" transform="translate(512 390.875)">手机品牌M游戏</text></g><g><path d="M189.5 384v-19.5h95v-4.264" stroke="#323232" stroke-width="2" fill="none" marker-end="url(#a)"/></g><g><path d="M379.5 384v-19.5h-95v-4.264" stroke="#323232" stroke-width="2" fill="none" marker-end="url(#b)"/></g><g><path d="M284.5 230v-24h180v-8.764" stroke="#323232" stroke-width="2" fill="none" marker-end="url(#c)"/></g><g><path d="M664.5 230v-24h-200v-8.764" stroke="#323232" stroke-width="2" fill="none" marker-end="url(#d)"/></g><g><path d="M575.5 384v-19.5h89v-4.264" stroke="#323232" stroke-width="2" fill="none" marker-end="url(#e)"/></g><g><path d="M776.5 384v-19.5h-112v-4.264" stroke="#323232" stroke-width="2" fill="none" marker-end="url(#f)"/></g></svg>

<svg xmlns="http://www.w3.org/2000/svg" xmlns:xlink="http://www.w3.org/1999/xlink" id="processonSvg1000" viewBox="96.0 47.0 774.0 472.0" width="774.0" height="472.0"><defs id="ProcessOnDefs1001"><marker id="ProcessOnMarker1077" markerUnits="userSpaceOnUse" orient="auto" markerWidth="16.23606797749979" markerHeight="10.550836550532098" viewBox="-1.0 -1.3763819204711736 16.23606797749979 10.550836550532098" refX="-1.0" refY="3.8990363547948754"><path id="ProcessOnPath1078" d="M12.0 3.8990363547948754L0.0 7.798072709589751V0.0Z" stroke="#323232" stroke-width="2.0" fill="#323232" transform="matrix(1.0,0.0,0.0,1.0,0.0,0.0)"/></marker><marker id="ProcessOnMarker1081" markerUnits="userSpaceOnUse" orient="auto" markerWidth="16.23606797749979" markerHeight="10.550836550532098" viewBox="-1.0 -1.3763819204711736 16.23606797749979 10.550836550532098" refX="-1.0" refY="3.8990363547948754"><path id="ProcessOnPath1082" d="M12.0 3.8990363547948754L0.0 7.798072709589751V0.0Z" stroke="#323232" stroke-width="2.0" fill="#fff" transform="matrix(1.0,0.0,0.0,1.0,0.0,0.0)"/></marker><marker id="ProcessOnMarker1085" markerUnits="userSpaceOnUse" orient="auto" markerWidth="16.23606797749979" markerHeight="10.550836550532098" viewBox="-1.0 -1.3763819204711736 16.23606797749979 10.550836550532098" refX="-1.0" refY="3.8990363547948754"><path id="ProcessOnPath1086" d="M12.0 3.8990363547948754L0.0 7.798072709589751V0.0Z" stroke="#323232" stroke-width="2.0" fill="#fff" transform="matrix(1.0,0.0,0.0,1.0,0.0,0.0)"/></marker><marker id="ProcessOnMarker1089" markerUnits="userSpaceOnUse" orient="auto" markerWidth="16.23606797749979" markerHeight="10.550836550532098" viewBox="-1.0 -1.3763819204711736 16.23606797749979 10.550836550532098" refX="-1.0" refY="3.8990363547948754"><path id="ProcessOnPath1090" d="M12.0 3.8990363547948754L0.0 7.798072709589751V0.0Z" stroke="#323232" stroke-width="2.0" fill="#fff" transform="matrix(1.0,0.0,0.0,1.0,0.0,0.0)"/></marker><marker id="ProcessOnMarker1093" markerUnits="userSpaceOnUse" orient="auto" markerWidth="16.23606797749979" markerHeight="10.550836550532098" viewBox="-1.0 -1.3763819204711736 16.23606797749979 10.550836550532098" refX="-1.0" refY="3.8990363547948754"><path id="ProcessOnPath1094" d="M12.0 3.8990363547948754L0.0 7.798072709589751V0.0Z" stroke="#323232" stroke-width="2.0" fill="#fff" transform="matrix(1.0,0.0,0.0,1.0,0.0,0.0)"/></marker><marker id="ProcessOnMarker1097" markerUnits="userSpaceOnUse" orient="auto" markerWidth="16.23606797749979" markerHeight="10.550836550532098" viewBox="-1.0 -1.3763819204711736 16.23606797749979 10.550836550532098" refX="-1.0" refY="3.8990363547948754"><path id="ProcessOnPath1098" d="M12.0 3.8990363547948754L0.0 7.798072709589751V0.0Z" stroke="#323232" stroke-width="2.0" fill="#fff" transform="matrix(1.0,0.0,0.0,1.0,0.0,0.0)"/></marker></defs><g id="ProcessOnG1002"><path id="ProcessOnPath1003" d="M96.0 47.0H870.0V519.0H96.0V47.0Z" fill="#ffffff"/><g id="ProcessOnG1004"><g id="ProcessOnG1005" transform="matrix(1.0,0.0,0.0,1.0,391.0,67.0)" opacity="1.0"><path id="ProcessOnPath1006" d="M0.0 4.0Q0.0 0.0 4.0 0.0L143.0 0.0Q147.0 0.0 147.0 4.0L147.0 111.0Q147.0 115.0 143.0 115.0L4.0 115.0Q0.0 115.0 0.0 111.0Z" stroke="#323232" stroke-width="2.0" stroke-dasharray="none" opacity="1.0" fill="#ffffff"/><path id="ProcessOnPath1007" d="M0.0 30.0L147.0 30.0M0.0 72.5L147.0 72.5" stroke="#323232" stroke-width="2.0" stroke-dasharray="none" opacity="1.0" fill="none"/><path id="ProcessOnPath1008" d="M0.0 0.0L147.0 0.0L147.0 115.0L0.0 115.0Z" stroke="#323232" stroke-width="0.0" stroke-dasharray="none" opacity="1.0" fill="none"/><g id="ProcessOnG1009" transform="matrix(1.0,0.0,0.0,1.0,10.0,6.875)"><text id="ProcessOnText1010" fill="#000000" font-weight="bold" font-style="normal" text-decoration="blink" font-family="微软雅黑" text-anchor="middle" font-size="13" x="63.5" y="13.325">手机软件</text></g><g id="ProcessOnG1011" transform="matrix(1.0,0.0,0.0,1.0,10.0,43.125)"><text id="ProcessOnText1012" fill="#000000" font-weight="bold" font-style="normal" text-decoration="blink" font-family="微软雅黑" text-anchor="middle" font-size="13" x="63.5" y="13.325"></text></g><g id="ProcessOnG1013" transform="matrix(1.0,0.0,0.0,1.0,10.0,85.625)"><text id="ProcessOnText1014" fill="#000000" font-weight="bold" font-style="normal" text-decoration="blink" font-family="微软雅黑" text-anchor="middle" font-size="13" x="63.5" y="13.325"></text></g></g><g id="ProcessOnG1015" transform="matrix(1.0,0.0,0.0,1.0,591.0,230.0)" opacity="1.0"><path id="ProcessOnPath1016" d="M0.0 4.0Q0.0 0.0 4.0 0.0L143.0 0.0Q147.0 0.0 147.0 4.0L147.0 111.0Q147.0 115.0 143.0 115.0L4.0 115.0Q0.0 115.0 0.0 111.0Z" stroke="#323232" stroke-width="2.0" stroke-dasharray="none" opacity="1.0" fill="#ffffff"/><path id="ProcessOnPath1017" d="M0.0 30.0L147.0 30.0M0.0 72.5L147.0 72.5" stroke="#323232" stroke-width="2.0" stroke-dasharray="none" opacity="1.0" fill="none"/><path id="ProcessOnPath1018" d="M0.0 0.0L147.0 0.0L147.0 115.0L0.0 115.0Z" stroke="#323232" stroke-width="0.0" stroke-dasharray="none" opacity="1.0" fill="none"/><g id="ProcessOnG1019" transform="matrix(1.0,0.0,0.0,1.0,10.0,6.875)"><text id="ProcessOnText1020" fill="#000000" font-weight="bold" font-style="normal" text-decoration="blink" font-family="微软雅黑" text-anchor="middle" font-size="13" x="63.5" y="13.325">游戏</text></g><g id="ProcessOnG1021" transform="matrix(1.0,0.0,0.0,1.0,10.0,43.125)"><text id="ProcessOnText1022" fill="#000000" font-weight="bold" font-style="normal" text-decoration="blink" font-family="微软雅黑" text-anchor="middle" font-size="13" x="63.5" y="13.325"></text></g><g id="ProcessOnG1023" transform="matrix(1.0,0.0,0.0,1.0,10.0,85.625)"><text id="ProcessOnText1024" fill="#000000" font-weight="bold" font-style="normal" text-decoration="blink" font-family="微软雅黑" text-anchor="middle" font-size="13" x="63.5" y="13.325"></text></g></g><g id="ProcessOnG1025" transform="matrix(1.0,0.0,0.0,1.0,211.0,230.0)" opacity="1.0"><path id="ProcessOnPath1026" d="M0.0 4.0Q0.0 0.0 4.0 0.0L143.0 0.0Q147.0 0.0 147.0 4.0L147.0 111.0Q147.0 115.0 143.0 115.0L4.0 115.0Q0.0 115.0 0.0 111.0Z" stroke="#323232" stroke-width="2.0" stroke-dasharray="none" opacity="1.0" fill="#ffffff"/><path id="ProcessOnPath1027" d="M0.0 30.0L147.0 30.0M0.0 72.5L147.0 72.5" stroke="#323232" stroke-width="2.0" stroke-dasharray="none" opacity="1.0" fill="none"/><path id="ProcessOnPath1028" d="M0.0 0.0L147.0 0.0L147.0 115.0L0.0 115.0Z" stroke="#323232" stroke-width="0.0" stroke-dasharray="none" opacity="1.0" fill="none"/><g id="ProcessOnG1029" transform="matrix(1.0,0.0,0.0,1.0,10.0,6.875)"><text id="ProcessOnText1030" fill="#000000" font-weight="bold" font-style="normal" text-decoration="blink" font-family="微软雅黑" text-anchor="middle" font-size="13" x="63.5" y="13.325">通讯录</text></g><g id="ProcessOnG1031" transform="matrix(1.0,0.0,0.0,1.0,10.0,43.125)"><text id="ProcessOnText1032" fill="#000000" font-weight="bold" font-style="normal" text-decoration="blink" font-family="微软雅黑" text-anchor="middle" font-size="13" x="63.5" y="13.325"></text></g><g id="ProcessOnG1033" transform="matrix(1.0,0.0,0.0,1.0,10.0,85.625)"><text id="ProcessOnText1034" fill="#000000" font-weight="bold" font-style="normal" text-decoration="blink" font-family="微软雅黑" text-anchor="middle" font-size="13" x="63.5" y="13.325"></text></g></g><g id="ProcessOnG1035" transform="matrix(1.0,0.0,0.0,1.0,306.0,384.0)" opacity="1.0"><path id="ProcessOnPath1036" d="M0.0 4.0Q0.0 0.0 4.0 0.0L143.0 0.0Q147.0 0.0 147.0 4.0L147.0 111.0Q147.0 115.0 143.0 115.0L4.0 115.0Q0.0 115.0 0.0 111.0Z" stroke="#323232" stroke-width="2.0" stroke-dasharray="none" opacity="1.0" fill="#ffffff"/><path id="ProcessOnPath1037" d="M0.0 30.0L147.0 30.0M0.0 72.5L147.0 72.5" stroke="#323232" stroke-width="2.0" stroke-dasharray="none" opacity="1.0" fill="none"/><path id="ProcessOnPath1038" d="M0.0 0.0L147.0 0.0L147.0 115.0L0.0 115.0Z" stroke="#323232" stroke-width="0.0" stroke-dasharray="none" opacity="1.0" fill="none"/><g id="ProcessOnG1039" transform="matrix(1.0,0.0,0.0,1.0,10.0,6.875)"><text id="ProcessOnText1040" fill="#000000" font-weight="bold" font-style="normal" text-decoration="blink" font-family="微软雅黑" text-anchor="middle" font-size="13" x="63.5" y="13.325">手机品牌N通讯录</text></g><g id="ProcessOnG1041" transform="matrix(1.0,0.0,0.0,1.0,10.0,43.125)"><text id="ProcessOnText1042" fill="#000000" font-weight="bold" font-style="normal" text-decoration="blink" font-family="微软雅黑" text-anchor="middle" font-size="13" x="63.5" y="13.325"></text></g><g id="ProcessOnG1043" transform="matrix(1.0,0.0,0.0,1.0,10.0,85.625)"><text id="ProcessOnText1044" fill="#000000" font-weight="bold" font-style="normal" text-decoration="blink" font-family="微软雅黑" text-anchor="middle" font-size="13" x="63.5" y="13.325"></text></g></g><g id="ProcessOnG1045" transform="matrix(1.0,0.0,0.0,1.0,116.0,384.0)" opacity="1.0"><path id="ProcessOnPath1046" d="M0.0 4.0Q0.0 0.0 4.0 0.0L143.0 0.0Q147.0 0.0 147.0 4.0L147.0 111.0Q147.0 115.0 143.0 115.0L4.0 115.0Q0.0 115.0 0.0 111.0Z" stroke="#323232" stroke-width="2.0" stroke-dasharray="none" opacity="1.0" fill="#ffffff"/><path id="ProcessOnPath1047" d="M0.0 30.0L147.0 30.0M0.0 72.5L147.0 72.5" stroke="#323232" stroke-width="2.0" stroke-dasharray="none" opacity="1.0" fill="none"/><path id="ProcessOnPath1048" d="M0.0 0.0L147.0 0.0L147.0 115.0L0.0 115.0Z" stroke="#323232" stroke-width="0.0" stroke-dasharray="none" opacity="1.0" fill="none"/><g id="ProcessOnG1049" transform="matrix(1.0,0.0,0.0,1.0,10.0,6.875)"><text id="ProcessOnText1050" fill="#000000" font-weight="bold" font-style="normal" text-decoration="blink" font-family="微软雅黑" text-anchor="middle" font-size="13" x="63.5" y="13.325">手机品牌M通讯录</text></g><g id="ProcessOnG1051" transform="matrix(1.0,0.0,0.0,1.0,10.0,43.125)"><text id="ProcessOnText1052" fill="#000000" font-weight="bold" font-style="normal" text-decoration="blink" font-family="微软雅黑" text-anchor="middle" font-size="13" x="63.5" y="13.325"></text></g><g id="ProcessOnG1053" transform="matrix(1.0,0.0,0.0,1.0,10.0,85.625)"><text id="ProcessOnText1054" fill="#000000" font-weight="bold" font-style="normal" text-decoration="blink" font-family="微软雅黑" text-anchor="middle" font-size="13" x="63.5" y="13.325"></text></g></g><g id="ProcessOnG1055" transform="matrix(1.0,0.0,0.0,1.0,703.0,384.0)" opacity="1.0"><path id="ProcessOnPath1056" d="M0.0 4.0Q0.0 0.0 4.0 0.0L143.0 0.0Q147.0 0.0 147.0 4.0L147.0 111.0Q147.0 115.0 143.0 115.0L4.0 115.0Q0.0 115.0 0.0 111.0Z" stroke="#323232" stroke-width="2.0" stroke-dasharray="none" opacity="1.0" fill="#ffffff"/><path id="ProcessOnPath1057" d="M0.0 30.0L147.0 30.0M0.0 72.5L147.0 72.5" stroke="#323232" stroke-width="2.0" stroke-dasharray="none" opacity="1.0" fill="none"/><path id="ProcessOnPath1058" d="M0.0 0.0L147.0 0.0L147.0 115.0L0.0 115.0Z" stroke="#323232" stroke-width="0.0" stroke-dasharray="none" opacity="1.0" fill="none"/><g id="ProcessOnG1059" transform="matrix(1.0,0.0,0.0,1.0,10.0,6.875)"><text id="ProcessOnText1060" fill="#000000" font-weight="bold" font-style="normal" text-decoration="blink" font-family="微软雅黑" text-anchor="middle" font-size="13" x="63.5" y="13.325">手机品牌N游戏</text></g><g id="ProcessOnG1061" transform="matrix(1.0,0.0,0.0,1.0,10.0,43.125)"><text id="ProcessOnText1062" fill="#000000" font-weight="bold" font-style="normal" text-decoration="blink" font-family="微软雅黑" text-anchor="middle" font-size="13" x="63.5" y="13.325"></text></g><g id="ProcessOnG1063" transform="matrix(1.0,0.0,0.0,1.0,10.0,85.625)"><text id="ProcessOnText1064" fill="#000000" font-weight="bold" font-style="normal" text-decoration="blink" font-family="微软雅黑" text-anchor="middle" font-size="13" x="63.5" y="13.325"></text></g></g><g id="ProcessOnG1065" transform="matrix(1.0,0.0,0.0,1.0,502.0,384.0)" opacity="1.0"><path id="ProcessOnPath1066" d="M0.0 4.0Q0.0 0.0 4.0 0.0L143.0 0.0Q147.0 0.0 147.0 4.0L147.0 111.0Q147.0 115.0 143.0 115.0L4.0 115.0Q0.0 115.0 0.0 111.0Z" stroke="#323232" stroke-width="2.0" stroke-dasharray="none" opacity="1.0" fill="#ffffff"/><path id="ProcessOnPath1067" d="M0.0 30.0L147.0 30.0M0.0 72.5L147.0 72.5" stroke="#323232" stroke-width="2.0" stroke-dasharray="none" opacity="1.0" fill="none"/><path id="ProcessOnPath1068" d="M0.0 0.0L147.0 0.0L147.0 115.0L0.0 115.0Z" stroke="#323232" stroke-width="0.0" stroke-dasharray="none" opacity="1.0" fill="none"/><g id="ProcessOnG1069" transform="matrix(1.0,0.0,0.0,1.0,10.0,6.875)"><text id="ProcessOnText1070" fill="#000000" font-weight="bold" font-style="normal" text-decoration="blink" font-family="微软雅黑" text-anchor="middle" font-size="13" x="63.5" y="13.325">手机品牌M游戏</text></g><g id="ProcessOnG1071" transform="matrix(1.0,0.0,0.0,1.0,10.0,43.125)"><text id="ProcessOnText1072" fill="#000000" font-weight="bold" font-style="normal" text-decoration="blink" font-family="微软雅黑" text-anchor="middle" font-size="13" x="63.5" y="13.325"></text></g><g id="ProcessOnG1073" transform="matrix(1.0,0.0,0.0,1.0,10.0,85.625)"><text id="ProcessOnText1074" fill="#000000" font-weight="bold" font-style="normal" text-decoration="blink" font-family="微软雅黑" text-anchor="middle" font-size="13" x="63.5" y="13.325"></text></g></g><g id="ProcessOnG1075"><path id="ProcessOnPath1076" d="M189.5 384.0L189.5 364.5L284.5 364.5L284.5 360.2360679774998" stroke="#323232" stroke-width="2.0" stroke-dasharray="none" fill="none" marker-end="url(#ProcessOnMarker1077)"/></g><g id="ProcessOnG1079"><path id="ProcessOnPath1080" d="M379.5 384.0L379.5 364.5L284.5 364.5L284.5 360.2360679774998" stroke="#323232" stroke-width="2.0" stroke-dasharray="none" fill="none" marker-end="url(#ProcessOnMarker1081)"/></g><g id="ProcessOnG1083"><path id="ProcessOnPath1084" d="M284.5 230.0L284.5 206.0L464.5 206.0L464.5 197.2360679774998" stroke="#323232" stroke-width="2.0" stroke-dasharray="none" fill="none" marker-end="url(#ProcessOnMarker1085)"/></g><g id="ProcessOnG1087"><path id="ProcessOnPath1088" d="M664.5 230.0L664.5 206.0L464.5 206.0L464.5 197.2360679774998" stroke="#323232" stroke-width="2.0" stroke-dasharray="none" fill="none" marker-end="url(#ProcessOnMarker1089)"/></g><g id="ProcessOnG1091"><path id="ProcessOnPath1092" d="M575.5 384.0L575.5 364.5L664.5 364.5L664.5 360.2360679774998" stroke="#323232" stroke-width="2.0" stroke-dasharray="none" fill="none" marker-end="url(#ProcessOnMarker1093)"/></g><g id="ProcessOnG1095"><path id="ProcessOnPath1096" d="M776.5 384.0L776.5 364.5L664.5 364.5L664.5 360.2360679774998" stroke="#323232" stroke-width="2.0" stroke-dasharray="none" fill="none" marker-end="url(#ProcessOnMarker1097)"/></g></g></g></svg>
